X: 421
T: Bonaparte's Retreat
B: jims roots
M:C|
L:1/8
Q: 1/4=100
K:D
V:1 
%N:GDad tuning (fiddle)
%F:http://www.slippery-hill.com/recording/bonapartes-retreat-4
%D:Library of Congress, AFS 02742 B01, Howard L. Maxey (1939)
|:"D"DEFD ADFD|"A"EDEF GFEF|"D"DEFD ADFD|"A"EDEF "D"D2D2:|
|:"D"defd adfd|"A"edef gfef|"D"defg adfd|"A"edef "D"d2d2:|]
V:D2A2 
|:"D"ABde dBAB|dedB "A"FG[D2A2]|"D"d2 de dBAG |"A"FDEF "D"D2D2:||
% abcbook-tune_id 6298c245d56809d08b806475


% abcbook-boost 0
% abcbook-tablature 
% abcbook-transpose 
% abcbook-lastupdated 1654178373457
% abcbook-soundfonts 
% abcbook-repeats 1


